X: 1
T:Hooper's Jig #2
T: Peter's Peerie Boat 
C: Tom Anderson
M: 6/8
L: 1/8
K: D
A| "D"d2d D2D | "Em"EFG "A7"ABc | "Bm"d2d "Em"Bed | "A"c3 ABc | 
"D"d2d D2D | "Em"EFG "A7"ABc | "Em"d2A "A7"GFE | "D"FDD  D2 :|
A | "D"d2d f2d | "F#m"c2c e2c | "G"B2B dcB | "D"A3 A2F | 
"Em"GFG "A7"BAG | "D"F2A d3 | "Em"E2G B3 | "A7"C2E A2A |
| "D"dcd fed | "F#m"cBc edc | "G"B2B dcB | "D"A3 A2F | 
"Em"GFG "A7"BAG | "D"F2A "Bm"a2g | "Em"fed "A7"ABc | "D"d3 d2 |]
